web/ui/src/assets/svgs/nav/top/alarm.svg

<svg height="24" viewBox="0 0 24 24" width="24" xmlns="http://www.w3.org/2000/svg"><g fill="none"><path d="m0 0h24v24h-24z" fill="#000" opacity="0"/><g fill="#595959"><path d="m13.7882812 20.671875c0 .9867187-.8015625 1.7882812-1.7882812 1.7882812s-1.7882813-.8015625-1.7882813-1.7882812m1.7882813-15.9140625c-.590625 0-1.0734375-.4828125-1.0734375-1.0734375v-1.0734375c0-.590625.4828125-1.0734375 1.0734375-1.0734375s1.0734375.4828125 1.0734375 1.0734375v1.0734375c0 .590625-.4828125 1.0734375-1.0734375 1.0734375z"/><path d="m9.85546875 12.6820313c-.4265625 0-.77109375-.3445313-.77109375-.7710938v-3.21796875c0-.4265625.34453125-.77109375.77109375-.77109375.42656245 0 .77109375.34453125.77109375.77109375v3.21796875c-.0023438.4265625-.346875.7710938-.77109375.7710938z"/><path d="m18.5625 20.0132812h-13.125c-.6984375 0-1.321875-.3632812-1.66640625-.9703124-.34453125-.6070313-.33515625-1.3289063.0234375-1.9265625l.0375-.0562501 1.3171875-1.8210937v-5.1164062c0-3.77812505 3.07265625-6.8507813 6.85078125-6.8507813s6.8507812 3.07265625 6.8507812 6.8507813v5.1140624l1.3546875 1.8773438c.3585938.6.3679688 1.3195312.0234375 1.9265625-.3445312.609375-.9679687.9726562-1.6664062.9726562zm-13.4578125-2.0835937c-.08203125.159375-.0234375.3.00703125.3539062.0328125.0562501.12890625.1898438.3234375.1898438h13.12734375c.196875 0 .2929688-.13125.3234375-.1898438.0304688-.0539062.0914062-.1945312.0070313-.3539062l-1.3125-1.8117188c-.1804688-.2484375-.2742188-.5414062-.2742188-.8484375v-5.146875c0-2.9273437-2.38125-5.3085937-5.3085938-5.3085937-2.9273437 0-5.3085937 2.38125-5.3085937 5.3085937v5.1445313c0 .3046875-.09375.5976562-.27421875.8460937z"/></g></g></svg>

<?xml version="1.0" encoding="UTF-8"?>
<svg width="24px" height="24px" viewBox="0 0 24 24" version="1.1" xmlns="http://www.w3.org/2000/svg" xmlns:xlink="http://www.w3.org/1999/xlink">
    <title>nav_icon_tishi_default</title>
    <g id="页面-1" stroke="none" stroke-width="1" fill="none" fill-rule="evenodd">
        <g id="系统设计规范" transform="translate(-1323.000000, -5359.000000)" fill-rule="nonzero">
            <g id="提醒" transform="translate(1323.000000, 5359.000000)">
                <rect id="矩形" fill="#000000" opacity="0" x="0" y="0" width="24" height="24"></rect>
                <path d="M13.7882812,20.671875 C13.7882812,21.6585937 12.9867187,22.4601562 12,22.4601562 C11.0132813,22.4601562 10.2117187,21.6585937 10.2117187,20.671875 M12,4.7578125 C11.409375,4.7578125 10.9265625,4.275 10.9265625,3.684375 L10.9265625,2.6109375 C10.9265625,2.0203125 11.409375,1.5375 12,1.5375 C12.590625,1.5375 13.0734375,2.0203125 13.0734375,2.6109375 L13.0734375,3.684375 C13.0734375,4.275 12.590625,4.7578125 12,4.7578125 L12,4.7578125 Z" id="形状" fill="#595959"></path>
                <path d="M9.85546875,12.6820313 C9.42890625,12.6820313 9.084375,12.3375 9.084375,11.9109375 L9.084375,8.69296875 C9.084375,8.26640625 9.42890625,7.921875 9.85546875,7.921875 C10.2820312,7.921875 10.6265625,8.26640625 10.6265625,8.69296875 L10.6265625,11.9109375 C10.6242187,12.3375 10.2796875,12.6820313 9.85546875,12.6820313 Z" id="路径" fill="#595959"></path>
                <path d="M18.5625,20.0132812 L5.4375,20.0132812 C4.7390625,20.0132812 4.115625,19.65 3.77109375,19.0429688 C3.4265625,18.4359375 3.4359375,17.7140625 3.79453125,17.1164063 L3.83203125,17.0601562 L5.14921875,15.2390625 L5.14921875,10.1226563 C5.14921875,6.34453125 8.221875,3.271875 12,3.271875 C15.778125,3.271875 18.8507812,6.34453125 18.8507812,10.1226563 L18.8507812,15.2367187 L20.2054687,17.1140625 C20.5640625,17.7140625 20.5734375,18.4335937 20.2289062,19.040625 C19.884375,19.65 19.2609375,20.0132812 18.5625,20.0132812 Z M5.1046875,17.9296875 C5.02265625,18.0890625 5.08125,18.2296875 5.11171875,18.2835937 C5.14453125,18.3398438 5.240625,18.4734375 5.43515625,18.4734375 L18.5625,18.4734375 C18.759375,18.4734375 18.8554688,18.3421875 18.8859375,18.2835937 C18.9164063,18.2296875 18.9773437,18.0890625 18.8929688,17.9296875 L17.5804688,16.1179687 C17.4,15.8695312 17.30625,15.5765625 17.30625,15.2695312 L17.30625,10.1226562 C17.30625,7.1953125 14.925,4.8140625 11.9976562,4.8140625 C9.0703125,4.8140625 6.6890625,7.1953125 6.6890625,10.1226562 L6.6890625,15.2671875 C6.6890625,15.571875 6.5953125,15.8648437 6.41484375,16.1132812 L5.1046875,17.9296875 Z" id="形状" fill="#595959"></path>
            </g>
        </g>
    </g>
</svg>
